icon_installer/data/icons/scalable/actions/show-globe-alt2-symbolic.svg

<?xml version="1.0" encoding="UTF-8"?>
<svg height="16px" viewBox="0 0 16 16" width="16px" xmlns="http://www.w3.org/2000/svg">
    <path d="m 7.5 0 c -4.128906 0 -7.5 3.371094 -7.5 7.5 s 3.371094 7.5 7.5 7.5 s 7.5 -3.371094 7.5 -7.5 s -3.371094 -7.5 -7.5 -7.5 z m 1.84375 2.3125 c 0.953125 0.335938 1.78125 0.925781 2.40625 1.6875 h -1.226562 c -0.304688 -0.609375 -0.699219 -1.179688 -1.179688 -1.6875 z m -3.71875 0.011719 c -0.472656 0.507812 -0.867188 1.070312 -1.171875 1.675781 h -1.203125 c 0.617188 -0.753906 1.4375 -1.335938 2.375 -1.675781 z m 1.375 0.097656 v 1.578125 h -1.398438 c 0.363282 -0.59375 0.828126 -1.128906 1.398438 -1.578125 z m 1 0.015625 c 0.558594 0.445312 1.019531 0.976562 1.378906 1.5625 h -1.378906 z m -5.402344 2.5625 h 1.441406 c -0.214843 0.644531 -0.347656 1.320312 -0.390624 2 h -1.625 c 0.0625 -0.714844 0.265624 -1.390625 0.574218 -2 z m 2.507813 0 h 1.894531 v 2 h -2.34375 c 0.046875 -0.683594 0.195312 -1.359375 0.449219 -2 z m 2.894531 0 h 1.875 c 0.253906 0.640625 0.402344 1.316406 0.449219 2 h -2.324219 z m 2.941406 0 h 1.460938 c 0.308594 0.609375 0.511718 1.285156 0.574218 2 h -1.644531 c -0.042969 -0.679688 -0.175781 -1.355469 -0.390625 -2 z m -8.917968 3 h 1.625 c 0.046874 0.679688 0.175781 1.355469 0.394531 2 h -1.445313 c -0.308594 -0.609375 -0.511718 -1.285156 -0.574218 -2 z m 2.632812 0 h 2.34375 v 2 h -1.890625 c -0.253906 -0.636719 -0.402344 -1.316406 -0.453125 -2 z m 3.34375 0 h 2.324219 c -0.050781 0.683594 -0.199219 1.363281 -0.453125 2 h -1.871094 z m 3.332031 0 h 1.644531 c -0.0625 0.714844 -0.265624 1.390625 -0.574218 2 h -1.464844 c 0.21875 -0.644531 0.347656 -1.320312 0.394531 -2 z m -8.082031 3 h 1.210938 c 0.3125 0.609375 0.710937 1.179688 1.195312 1.6875 c -0.953125 -0.335938 -1.78125 -0.925781 -2.40625 -1.6875 z m 2.363281 0 h 1.386719 v 1.550781 c -0.5625 -0.441406 -1.027344 -0.96875 -1.386719 -1.550781 z m 2.386719 0 h 1.367188 c -0.355469 0.578125 -0.8125 1.097656 -1.367188 1.535156 z m 2.519531 0 h 1.230469 c -0.632812 0.769531 -1.472656 1.363281 -2.4375 1.695312 c 0.492188 -0.507812 0.894531 -1.082031 1.207031 -1.695312 z m 0 0" fill="#222222"/>
</svg>

<svg xmlns="http://www.w3.org/2000/svg" width="16" height="16"><path fill="#222" d="M7.5 0C3.371 0 0 3.371 0 7.5S3.371 15 7.5 15 15 11.629 15 7.5 11.629 0 7.5 0zm1.844 2.313A5.462 5.462 0 0 1 11.75 4h-1.227a6.986 6.986 0 0 0-1.18-1.688zm-3.719.011A7.235 7.235 0 0 0 4.453 4H3.25a5.483 5.483 0 0 1 2.375-1.676zM7 2.422V4H5.602A5.956 5.956 0 0 1 7 2.422zm1 .015c.559.446 1.02.977 1.379 1.563H8zM2.598 5h1.441a7.923 7.923 0 0 0-.39 2H2.022c.063-.715.266-1.39.575-2zm2.507 0H7v2H4.656a6.66 6.66 0 0 1 .45-2zM8 5h1.875a6.69 6.69 0 0 1 .45 2H8zm2.941 0h1.461c.309.61.512 1.285.575 2h-1.645a7.923 7.923 0 0 0-.39-2zM2.023 8h1.625c.047.68.176 1.355.395 2H2.598a5.482 5.482 0 0 1-.575-2zm2.633 0H7v2H5.11a6.763 6.763 0 0 1-.454-2zM8 8h2.324a6.735 6.735 0 0 1-.453 2H8zm3.332 0h1.645a5.482 5.482 0 0 1-.575 2h-1.464c.218-.645.347-1.32.394-2zM3.25 11h1.21c.313.61.712 1.18 1.196 1.688A5.462 5.462 0 0 1 3.25 11zm2.363 0H7v1.55A5.93 5.93 0 0 1 5.613 11zM8 11h1.367A5.858 5.858 0 0 1 8 12.535zm2.52 0h1.23a5.458 5.458 0 0 1-2.438 1.695A6.994 6.994 0 0 0 10.52 11zm0 0"/></svg>
